app/dist/common/images/nanorepro-ag.svg

<svg height="18" viewBox="0 0 18 18" width="18" xmlns="http://www.w3.org/2000/svg"><path d="m0 0h18v18h-18z" fill="#f0f3fa"/><path d="m14 8.99a2 2 0 1 0 0 .01 5 5 0 0 1 -8.75 3.3h4.75v-.3h-5a5 5 0 1 1 8-6h-4.62v.3h4.83c.5.78.79 1.7.79 2.69zm-1.33 1.18a.5.5 0 1 1 -1 0 .5.5 0 0 1 1 0z" fill="#1e2144"/><path d="m5 9v-2h1v1h4v1zm-1 2v-2h.97v1h4.03v1z" fill="#f0f3fa" opacity=".7"/></svg>

<!-- by TradingView --><svg width="18" height="18" viewBox="0 0 18 18" xmlns="http://www.w3.org/2000/svg"><path fill="#F0F3FA" d="M0 0h18v18H0z"/><path d="M14 8.99A2 2 0 1 0 14 9a5 5 0 0 1-8.75 3.3H10V12H5a5 5 0 1 1 8-6H8.38v.3h4.83c.5.78.79 1.7.79 2.69Zm-1.33 1.18a.5.5 0 1 1-1 0 .5.5 0 0 1 1 0Z" fill="#1E2144"/><path opacity=".7" d="M5 9V7h1v1h4v1H5ZM4 11V9h.97v1H9v1H4Z" fill="#F0F3FA"/></svg>
